X: 47
T:Ymdaith Caerffili
M:2/4
L:1/8
Q:280
C:Trad
S:Blodau'r Grug Collection Vol. 1
R:March
A:Wales
Z:brian_martin12345@yahoo.com
K:G
D2|G2G>G|G2B>G|A2A>A|A2d>c|BG dB|gd cB|AG FE|Dc BA|!
G2G>G|G2B>G|A2A>A|A2d>c|Bg ec|BA GF|G2 G>G|G2||]!
Bc|d2d>d|d2cB|A2A>G|A2Bc|d2d>d|ed cB|AD FA|dc BA|!
G>A B/A/B/G/|A>B c/B/c/A/|B>c d/c/d/B/|c2ec|Bg ec|BA GF|G2 G>G|G2||

